X:1
T:Matona, mia cara
T:Orlando di Lasso (1520-1594)
%%score 1 2 3 4
L:1/8
Q:1/4=220
M:4/4
K:F
V:1 treble nm="Soprano" snm="S."
V:2 treble nm="Alto" snm="A."
V:3 treble-8 nm="Tenor" snm="T."
V:4 bass nm="Bass" snm="Bar."
V:1
!mf! (F4 F2 F2 | G4 F4 | E4 E4 | F4 B2 A2 | (G2 F4) E2 | F8) | (A4 A2 A2 | B4 A4 | G4 G4 | %9
w: Ma- to- na,~|mi- a~|ca- ra,~|mi~ fol- le-|re~ _ can-|zon,~|Ma- to- na,~|mi- a~|ca- ra,~|
 B4 B2 A2 | (G2!>(! F4) E2 | F4)!>)! z2 A2 | .B2 .B2 .A2 .G2 |!>(! ^F4 F4!>)! | G4 A4 | =B2 c4 B2 | %16
w: mi~ fol- le-|re~ _ can-|zon,~ can-|tar~ sot- to~ fi-|ne- stra,~|Lan- tze~|buon~ com- pag-|
 !breath!c4!mf! A2!<(! A2 | !tenuto!A4!<)! GFGF | D2 !tenuto!F4 E2 | F4!p! A2 A2 | A4 GFGF | %21
w: non.~ Don,~ don,~|don,~ di ri,~ di ri,~|don,~ don,~ don,~|don,~ Don,~ don,~|don,~ di ri,~ di ri,~|
 D2 F4 E2 | F4 z2 |:!p! E2 |"^cresc." E2 E2 F2 E2 | !tenuto!D4 E4 | z2 F2 G2 G2 | %27
w: don,~ don,~ don,~|don,~|Ti|preo- go~ m'as col-|ta- re,~|che~ mi~ can-|
 !tenuto!F6!>(! F2!>)! | !tenuto!F4 z2 :|!p! F2 |!<(! G2 G2 A2 A2!<)! |!mf! G4 G2 G2 | (A4 F2) E2 | %33
w: tar~ de~|bon,|E|mi~ ti~ fol- ler~|be- ne,~ co-|me _ gre-|
 G4 G4 | G4!mf! A2 A2 | A4 GFGF | D2!>(! F4!>)! E2 | F4!p! A2 A2 | A4 GFGF | D2 F4 E2 | F4 z2 |: %41
w: co\_e~ ca-|pon.~ Don,~ don,~|don,~ di ri,~ di ri,~|don,~ don,~ don,~|don,~ Don,~ don,~|don,~ di ri,~ di ri,~|don,~ don,~ don,~|don,~|
!f!!p! F2 |"^staccato" F2 G2 A2 B2 | !tenuto!A4 .A2 A2 | !tenuto!B4 z2 .A2 | !tenuto!B4 (A4 | %46
w: Co-|m'an- dar~ a~l- le~|caz- ze,~ caz-|zar,~ caz-|zar~ con~|
 F4 G4 | A4) z2 :|!p! c2 |"^legato" F2 G2 A2 F2 | G4 F4 |!mf! A4 A2 A2 |"^Rit." c4 =B4 | %53
w: le~ fal-|con,|Mi|ti~ por~- tar~ be-|caz- ze,|gras se~ co-|me ro-|
 c4!mf!"^a tempo" A2 A2 | A4 GFGF | D2!>(! F4 E2!>)! | F4!p! A2 A2 | A4 GFGF | D2 F4 E2 | F4 z2 |: %60
w: gnon,~ Don,~ don,~|don,~ di ri,~ di ri,~|don,~ don,~ don,~|don,~ Don,~ don,~|don,~ di ri,~ di ri,~|don,~ don,~ don,~|don,~|
!p! E2 |"^cresc." F2 F2 G2 G2 | A4 A4 |!mf! d4 c2 B2 | (A2 G4)!>(! ^F2 | G4!>)! z2 :| ^F2 | %67
w: Si|mi~ non~ sa- per~|di- re,|tan- te~ bel-|le~ _ ra-|zon,~|Pe-|
 !tenuto!^F4 G2 !tenuto!A2- | A2 G2 !tenuto!G4 | !tenuto!^F4 z2 G2 | A4 F4 |"^Rit." F6 F2 | %72
w: trar- cha~ mi~|_ non~ sa-|per,~ ne~|fon te~|d'He- li-|
 E4"^Lento" A2 A2 | A4 GFGF | D2 F4 E2 | F4!p! A2 A2 | A4 GFGF | D2 F4 E2 | F4 z2 |:!mf! D2 | %80
w: con.~ Don,~ don,~|don,~ di ri,~ di ri,~|don,~ don,~ don,~|don,~ Don,~ don,~|don,~ di ri,~ di ri,~|don,~ don,~ don,~|don,~|Se|
 D6 D2 | E2 F2 F4 | F8 | z2 G2 F2 F2 | D4 E4 | F4 z2 :| D2 |"^cresc." _E2 D2 E2 D2 | G4 ^F4 | %89
w: ti~ mi~|fol- ler~ be-|ne~|mi~ non~ es-|ser~ pol-|tron,~|Mi|can- tar tut- ta~|not- te,~|
!f! z2 G2 !tenuto!B4 | z2 .B2 !tenuto!d4 | c2 c4 =B2 | c4!mf! A2 A2 | A4 GFGF | D2 F4 E2 | %95
w: ur- lar,|ur- lar|co- me~ mon-|ton.~ Don,~ don,~|don,~ di ri,~ di ri,~|don,~ don,~ don,~|
 F4!p! A2 A2 | A4 GFGF | D2 F4 E2 | !breath!F4"^rall." !>!D4 | !>!!breath!C4 !>!D4 | %100
w: don,~ Don,~ don,~|don,~ di ri,~ di ri,~|don,~ don,~ don,~|don,~ don,~|don,~ don,~|
 !>!!breath!C4 !>!!tenuto!D4 | !>!C8- C8 |] %102
w: don,~ don,~|don.~ *|
V:2
!mf! (C4 C2 C2 | _E4 C4 | C4 C4 | D4 G2 E2 | D4 C4 | C8) | (F4 F2 F2 | G4 F4 | E4 E4 | F4 G2 E2 | %10
w: Ma- to- na,~|mi- a~|ca- ra,~|mi~ fol- le-|re~ can-|zon,~|Ma- to- na,~-|mi- a~|ca- ra,~|mi~ fol- le-|
 D4!>(! C4 | C4)!>)! z2 F2 | .F2 .F2 .F2 .E2 |!>(! D4 D2!>)! D2- | D2!>(! (E2 F2)!>)! E2 | G6 G2 | %16
w: re~ can-|zon,~ can-|tar~ sot- to~ fi-|ne- stra,~ Lan|_ tze~ _ buon~|com- pag-|
 !breath!E4!mf! F2!<(! F2 | !tenuto!F4!<)! EDCC | B,2 D2 !tenuto!C4 | C4!p! F2 F2 | F4 EDCC | %21
w: non. Don,~ don,~|don,~ di ri,~ di ri,~|don,~ don,~ don,~|don,~ Don,~ don,~|don,~ di ri,~ di ri,~|
 B,2 D2 C4 | A,4 z2 |:!p! C2 |"^cresc." C2 C2 D2 C2 | !tenuto!=B,4 C2 C2 | D4 _E4 | %27
w: don,~ don,~ don,~|don,|Ti|preo- go~ m'as col-|ta- re,~ che~|mi~ can-|
 !tenuto!D4!>(! !tenuto!C4!>)! | !tenuto!D4 z2 :|!p! C2 |!<(! E2 E2 F2 F2!<)! |!mf! D4 E4 | F4 C4 | %33
w: tar~ de~|bon,|E|mi~ ti~ fol- ler~|be- ne,~|co- me~|
 D2 E2 D4 | E4!mf! F2 F2 | F4 EDCC | B,2!>(! D2 C4!>)! | C4!p! F2 F2 | F4 EDCC | C2 D2 C4 | %40
w: gre- co\_e~ ca-|pon.~ Don,~ don,~|don,~ di ri,~ di ri,~|don,~ don,~ don,~|don,~ Don,~ don,~|don,~ di ri,~ di ri,~|don,~ don,~ don,~|
 A,4 z2 |:!f!!p! C2 |"^staccato" D2 E2 F2 F2 | !tenuto!F4 .F2 .F2 | !tenuto!G4 z2 .F2 | %45
w: don,~|Co-|m'an- dar~ a~l- le~|caz- ze,~ caz-|zar,~ caz-|
 !tenuto!G4 F4- | F2 D4 E2 | F4 z2 :|!p! C2 |"^legato" D2 B,2 C2 D2 | _E4 D4 |!mf! F4 F2 E2 | %52
w: zar~ con~|_ le~ fal-|con,|Mi|ti~ por~- tar~ be-|caz- ze~|gras se~ co-|
"^Rit." A4 G4 | E4!mf!"^a tempo" F2 F2 | F4 EDCC | B,2!>(! D2 C4!>)! | C4!p! F2 F2 | F4 EDCC | %58
w: me ro-|gnon,~ Don,~ don,~|don,~ di ri,~ di ri,~|don,~ don,~ don,~|don,~ Don,~ don,~|don,~ di ri,~ di ri,~|
 B,2 D2 C4 | A,4 z2 |:!p! C2 |"^cresc." C2 D2 _E2 D2 | F4 F4 |!mf! F4 F2 F2- | F2 E2!>(! D4 | %65
w: don,~ don,~ don,~|don,~|Si|mi~ non~ sa- per~|di- re,|tan- te~ bel|_ le~ ra-|
 =B,4!>)! z2 :| D2 | !tenuto!D4 E2 !tenuto!F2- | F2 D2 !tenuto!C4 | !tenuto!D4 E4- | E2 F2 D4 | %71
w: zon,~|Pe-|trar- cha~ mi~|_ non~ sa-|per,~ ne~|_ fon te~|
"^Rit." C4 =B,4 | C4"^Lento" F2 F2 | F4 EDCC | B,2 D2 C4 | C4!p! F2 F2 | F4 EDCC | B,2 D2 C4 | %78
w: d'He- li-|con.~ Don,~ don,~|don,~ di ri,~ di ri,~|don,~ don,~ don,~|don,~ Don,~ don,~|don,~ di ri,~ di ri,~|don,~ don,~ don,~|
 A,4 z2 |:!mf! B,2 | B,6 A,2 | C2 D2 C4 | D6 D2 | G,4 A,4 | =B,4 C4 | C4 z2 :| B,2 | %87
w: don,~|Se|ti~ mi~|fol- ler~ be-|ne~ mi~|non~ es-|ser~ pol-|tron,~|Mi|
"^cresc." B,2 B,2 B,2 B,2 | (B,2 C2) D2 .D2 |!f! !tenuto!_E4 z2 .D2 | !tenuto!G4 z2 F2 | %91
w: can- tar tut- ta|not _ ta ur|lar, ur-|lar ur-|
 A2 A2 G2 G2 | E4!mf! F2 F2 | F4 EDCC | B,2 D2 C4 | C4!p! F2 F2 | F4 EDCC | B,2 D2 C4 | %98
w: lar co- me~ mon-|ton.~ Don,~ don,~|don,~ di ri,~ di ri,~|don,~ don,~ don,~|don,~ Don,~ don,~|don,~ di ri,~ di ri,~|don,~ don,~ don,~|
 !breath!A,4"^rall." !>!B,4 | !>!!breath!A,4 !>!B,4 | !>!!breath!A,4 !>!!tenuto!B,4 | %101
w: don,~ don,~|don,~ don,~|don,~ don,~|
 !>!A,8- A,8 |] %102
w: don.~ *|
V:3
!mf! (A4 A2 A2 | B4 A4 | G4 G4 | B4 d2 c2 | B4 G4 | A8) | (c4 c2 c2 | _e4 c4 | c4 c4 | d4 d2 c2 | %10
w: Ma- to- na,~|mi- a~|ca- ra,~|mi~ fol- le-|re~ can-|zon,~|Ma- to- na,~|mi- a~|ca- ra,~|mi~ fol- le-|
 B4!>(! A2 G2 | A4)!>)! z2 c2 | .d2 .d2 .c2 .c2 |!>(! A4 A4!>)! | =B4 c4 | d2 _e2 d4 | %16
w: re can _|zon,~ can-|tar~ sot- to~ fi-|ne- stra,~|Lan- tze~|buon~ com- pag-|
 !breath!c4!mf! c2!<(! c2 | !tenuto!c4!<)! cAGA | F2 B2 A2 G2 | A4!p! c2 c2 | c4 cAGA | %21
w: non.~ Don,~ don,~|don,~ di ri,~ di ri,~|don,~ don,~ don,~ don,~|don,~ Don,~ don,~|don,~ di ri,~ di ri,~|
 F2 B2 A2 G2 | F4 z2 |:!p! G2 |"^cresc." G2 G2 B2 G2 | !tenuto!G4 G2 G2 | B4 B4 | %27
w: don,~ don,~ don,~ don,~|don,|Ti|preo- go~ m'as col-|ta- re,~ che~|mi~ can-|
 !tenuto!B4!>(! !tenuto!A4!>)! | !tenuto!B4 z2 :|!p! A2 |!<(! c2 c2 c2 c2!<)! |!mf! =B4 c2 c2- | %32
w: tar~ de~|bon,|E|mi~ ti~ fol- ler~|be- ne,~ co|
 c2 c2 A4 | =B2 c4 B2 | c4!mf! c2 c2 | c4 cAGA | F2!>(! B2 A2 G2!>)! | A4!p! c2 c2 | c4 cAGA | %39
w: _ me~ gre-|co͜ e~ ca-|pon.~ Don,~ don,~|don,~ di ri,~ di ri,~|don,~ don,~ don,~ don,~|don,~ Don,~ don,~|don,~ di ri,~ di ri,~|
 F2 B2 A2 G2 | F4 z2 |:!f!!p! A2 |"^staccato" A2 c2 c2 d2 | !tenuto!c4 c4 | z2 ._e2 !tenuto!c4 | %45
w: don,~ don,~ don,~ don,~|don,~|Co-|m'an- dar~ al- le~|caz- ze,~|caz- zar,~|
 z2 ._e2 .c2 (c2 | d4 B4 | c4) z2 :|!p! A2 |"^legato" B2 G2 F2 B2 | _E4 B4 |!mf! c4 c2 c2 | %52
w: caz- zar~ con~|le~ fal-|con,|Mi|ti~ por~- tar~ be-|caz- ze~|gras se~ co-|
"^Rit." f4 d4 | c4!mf!"^a tempo" c2 c2 | c4 cAGA | F2!>(! B2 A2 G2!>)! | A4!p! c2 c2 | c4 cAGA | %58
w: me ro-|gnon,~ Don,~ don,~|don,~ di ri,~ di ri,~|don,~ don,~ don,~ don,~|don,~ Don,~ don,~|don,~ di ri,~ di ri,~|
 F2 B2 A2 G2 | F4 z2 |:!p! G2 |"^cresc." A2 A2 B2 B2 | c4 c4 |!mf! B4 c2 d2 | c4!>(! A4 | %65
w: don,~ don,~ don,~ don,~|don,~|Si|mi~ non~ sa- per~|di- re,~|tan- te~ bel-|le~ ra-|
 G4!>)! z2 :| A2 | !tenuto!A4 c2 !tenuto!c2- | c2 B2 !tenuto!G4 | !tenuto!A4 c4 | c4 B4 | %71
w: zon,~|Pe-|trar- cha~ mi~|_ non~ sa-|per,~ ne~|fon te~|
"^Rit." A4 F4 | G4"^Lento" A2 A2 | c4 cAGA | F2 B2 A2 G2 | A4!p! c2 c2 | c4 cAGA | F2 B2 A2 G2 | %78
w: d'He- li-|con.~ Don,~ don,~|don,~ di ri,~ di ri,~|don,~ don,~ don,~ don,~|don,~ Don,~ don,~|don,~ di ri,~ di ri,~|don,~ don,~ don,~ don,~|
 F4 z2 |:!mf! F2 | F4 F2 F2 | G2 (B4 A2) | B6 A2 | c6 d2- | d2 G4 G2 | A4 z2 :| F2 | %87
w: don,~|Se|ti~ mi~ fol-|ler~ be _|ne~ mi~|non~ es|_ ser~ pol-|tron,~|Mi|
"^cresc." G2 F2 G2 F2 | G4 A2 .A2 |!f! !tenuto!c4 z2 .B2 | !tenuto!_e4 z2 B2 | f2 f2 e2 d2 | %92
w: can- tar tut- ta~|not- te,~ ur-|lar, ur-|lar ur-|lar co- me~ mon-|
 c4!mf! c2 c2 | c4 cAGA | F2 B2 A2 G2 | A4!p! c2 c2 | c4 cAGA | F2 B2 A2 G2 | !>!F8 | %99
w: ton.~ Don,~ don,~|don,~ di ri,~ di ri,~|don,~ don,~ don,~ don,~|don,~ Don,~ don,~|don,~ di ri,~ di ri,~|don,~ don,~ don,~ don,~|don,~|
"^rall." !>!!breath!F8 | !>!F8 | !>!F8- F8 |] %102
w: don,~|don,~|don,~ *|
V:4
!mf! (F,4 F,2 F,2 | _E,4 F,4 | C,4 C,4 | B,,4 G,,2 A,,2 | B,,4 C,4 | F,,8) | (F,4 F,2 F,2 | %7
w: Ma- to- na,~|mi- a~|ca- ra,~|mi~ fol- le-|re~ can-|zon,~|Ma- to- na,~|
 _E,4 F,4 | C,4 C,4 | B,,4 G,,2 A,,2 | B,,4!>(! C,4 | F,,4)!>)! z2 F,2 | .B,,2 .B,,2 .F,2 .C,2 | %13
w: mi- a~|ca- ra,~|mi~ fol- le-|re~ can-|zon,~ can-|tar~ sot- to~ fi-|
!>(! D,4 D,4!>)! | G,4 F,2 A,2 | !tenuto!G,4 !tenuto!G,4 | !breath!!tenuto!C,4!mf! F,2!<(! F,2 | %17
w: ne- stra,~|Lan- tze~ buon~|com- pag-|non.~ Don,~ don,~|
 !tenuto!F,4!<)! C,D,E,F, | !tenuto!B,,4 !tenuto!C,4 | !tenuto!F,,4!p! F,2 F,2 | F,4 C,D,E,F, | %21
w: don,~ di ri,~ di ri,~|don,~ don,~|don,~ Don,~ don,~|don,~ di ri,~ di ri,~|
 B,,4 C,4 | F,,4 z2 |:!p! C,2 |"^cresc." C,2 C,2 B,,2 C,2 | !tenuto!G,,4 C,4 | z2 B,,2 _E,2 E,2 | %27
w: don,~ don,~|don,|Ti|preo- go~ m'as col-|ta- re,~|che~ mi~ can-|
 !tenuto!B,,4!>(! !tenuto!F,4!>)! | !tenuto!B,,4 z2 :|!p! F,2 |!<(! C,2 C,2 F,2 F,2!<)! | %31
w: tar~ de~|bon,|E|mi~ ti~ fol- ler~|
!mf! G,4 C,4 | F,4 F,2 A,2 | G,4 G,4 | C,4!mf! F,2 F,2 | F,4 C,D,E,F, | B,,4!>(! C,4!>)! | %37
w: be- ne,~|co- me~ gre-|co\_e~ ca-|pon.~ Don,~ don,~|don,~ di ri,~ di ri,~|don,~ don,~|
 F,,4!p! F,2 F,2 | F,4 C,D,E,F, | B,,4 C,4 | F,4 z2 |:!f!!p! F,2 |"^staccato" D,2 C,2 F,2 B,,2 | %43
w: don,~ Don,~ don,~|don,~ di ri,~ di ri,~|don,~ don,~|don,~|Co-|m'an- dar~ al- le~|
 !tenuto!F,4 F,4 | z2 ._E,2 !tenuto!F,4 | z2 ._E,2 .F,2 (F,2 | B,4 G,4 | F,4) z2 :| z2 | z8 | z8 | %51
w: caz- ze,~|caz- zar,~|caz- zar~ con~|le~ fal-|con,||||
!mf! F,4 F,2 A,2 |"^Rit." F,4 G,4 | C,4!mf!"^a tempo" F,2 F,2 | F,4 C,D,E,F, | B,,4!>(! C,4!>)! | %56
w: gras se~ co-|me ro-|gnon,~ Don,~ don,~|don,~ di ri,~ di ri,~|don,~ don,~|
 F,,4!p! F,2 F,2 | F,4 C,D,E,F, | B,,4 C,4 | F,,4 z2 |:!p! C,2 |"^cresc." F,2 F,2 _E,2 G,2 | %62
w: don,~ Don,~ don,~|don,~ di ri,~ di ri,~|don,~ don,~|don,~|Si|mi~ non~ sa- per~|
 F,4 F,4 |!mf! B,,4 A,,2 B,,2 | C,4!>(! D,4 | G,,4!>)! z2 :| D,2 | !tenuto!D,4 C,2 !tenuto!F,2- | %68
w: di- re,~|tan- te~ bel-|le~ ra-|zon,~|Pe-|trar- cha~ mi~|
 F,2 G,2 !tenuto!_E,4 | !tenuto!D,4 C,4 | A,,4 B,,4 |"^Rit." F,4 D,4 | C,4"^Lento" F,2 F,2 | %73
w: _ non~ sa-|per,~ ne~|fon te~|d'He- li-|con.~ Don,~ don,~|
 F,4 C,D,E,F, | B,,4 C,4 | F,,4!p! F,2 F,2 | F,4 C,D,E,F, | B,,4 C,4 | F,,4 z2 |:!mf! B,,2 | %80
w: don,~ di ri,~ di ri,~|don,~ don,~|don,~ Don,~ don,~|don,~ di ri,~ di ri,~|don,~ don,~|don,~|Se|
 B,,4 D,4 | C,2 B,,2 F,4 | B,,4 D,4 | E,4 F,4 | G,4 C,4 | F,4 z2 :| B,,2 | %87
w: ti~ mi~|fol- ler~ be-|ne~ mi~|non~ es-|ser~ pol-|tron,~|Mi|
"^cresc." _E,2 B,,2 E,2 B,,2 | _E,4 D,4 |!f! z2 .C,2 !tenuto!G,4 | z2 ._E,2 !tenuto!B,4 | %91
w: can- tar tut- ta~|not- te,~|ur- lar,|ur- lar,|
 F,4 G,2 G,2 | C,4!mf! F,2 F,2 | F,4 C,D,E,F, | B,,4 C,4 | F,,4!p! F,2 F,2 | F,4 C,D,E,F, | %97
w: co- me~ mon-|ton.~ Don,~ don,~|don,~ di ri,~ di ri,~|don,~ don,~|don,~ Don,~ don,~|don,~ di ri,~ di ri,~|
 B,,4 C,4 | !>!!breath!F,,4"^rall." !>!B,,2 !>!B,,2 | !>!!breath!F,,4 !>!B,,!>!C,!>!D,!>!E, | %100
w: don,~ don,~|don,~ don,~ don,~|don,~ di ri,~ di ri,~|
 !>!!breath!F,2 !>!F,,2 !>!!tenuto!B,,4 | !>!F,,8- F,,8 |] %102
w: don,~ don,~ don,~|don.~ *|

